exports/under-5-population-3dee247acf7136667edabb86e63dff2b_v1_850x600.svg

<svg xmlns="http://www.w3.org/2000/svg" version="1.1" style="background-color:#fff;-webkit-font-smoothing:antialiased" width="850" height="600" font-family="'Helvetica Neue',Helvetica,Arial,sans-serif" font-size="18" text-rendering="optimizeLegibility"><g class="ChartTab"><g class="HeaderView"><g opacity=".8" transform="matrix(.27 0 0 .27 778 15)"><a xmlns:xlink="http://www.w3.org/1999/xlink" xlink:href="https://ourworldindata.org" target="_blank"><g><path fill="#1B2543" d="M0 0h211.2v130.1H0z"/><path fill="#E63912" d="M0 112.2h211.2v17.9H0z"/><g><path fill="none" d="M1.2 12.3h210.2v99.2H1.2z"/><path fill="#FFF" d="M37.8 32.2c0 12.7-7.7 19.4-17.1 19.4-9.7 0-16.6-7.5-16.6-18.7 0-11.7 7.3-19.3 17.1-19.3 10.1.1 16.6 7.7 16.6 18.6zm-28.6.6c0 7.9 4.3 14.9 11.8 14.9 7.5 0 11.8-6.9 11.8-15.3 0-7.3-3.8-14.9-11.8-14.9-7.9 0-11.8 7.3-11.8 15.3zM62.7 43.8c0 2.7.1 5.1.2 7.2h-4.3l-.3-4.3h-.1c-1.3 2.1-4 4.9-8.8 4.9-4.2 0-9.1-2.3-9.1-11.6V24.6h4.8v14.6c0 5 1.5 8.4 5.9 8.4 3.2 0 5.5-2.2 6.3-4.4.3-.7.4-1.6.4-2.5V24.6h4.8v19.2zM67.3 32.8c0-3.1-.1-5.8-.2-8.2h4.2l.2 5.2h.2c1.2-3.5 4.1-5.8 7.3-5.8.5 0 .9.1 1.4.2v4.5c-.5-.1-1-.2-1.6-.2-3.4 0-5.8 2.6-6.5 6.2-.1.7-.2 1.4-.2 2.2V51h-4.8V32.8zM95.4 51L86 14.2h5l4.4 18.6c1.1 4.6 2.1 9.2 2.7 12.7h.1c.6-3.7 1.8-8 3-12.8l4.9-18.5h5l4.5 18.7c1 4.4 2 8.7 2.6 12.6h.1c.8-4 1.8-8.1 3-12.7l4.9-18.5h4.9L120.6 51h-5L111 31.9c-1.1-4.7-1.9-8.3-2.4-12h-.1c-.7 3.7-1.5 7.3-2.8 12L100.4 51h-5zM154.9 37.6c0 9.8-6.8 14-13.2 14-7.2 0-12.7-5.2-12.7-13.6 0-8.8 5.8-14 13.1-14 7.7 0 12.8 5.5 12.8 13.6zm-21 .3c0 5.8 3.3 10.1 8 10.1 4.6 0 8-4.3 8-10.3 0-4.5-2.2-10.1-7.9-10.1s-8.1 5.2-8.1 10.3zM158.2 32.8c0-3.1-.1-5.8-.2-8.2h4.2l.2 5.2h.2c1.2-3.5 4.1-5.8 7.3-5.8.5 0 .9.1 1.4.2v4.5c-.5-.1-1-.2-1.6-.2-3.4 0-5.8 2.6-6.5 6.2-.1.7-.2 1.4-.2 2.2V51h-4.8V32.8zM173.5 12.3h4.8V51h-4.8V12.3zM206.5 12.3v31.9c0 2.3.1 5 .2 6.8h-4.3l-.2-4.6h-.2c-1.5 2.9-4.7 5.2-9 5.2-6.4 0-11.3-5.4-11.3-13.4-.1-8.8 5.4-14.2 11.9-14.2 4 0 6.8 1.9 8 4h.1V12.3h4.8zm-4.8 23.1c0-.6-.1-1.4-.2-2a7 7 0 00-6.9-5.6c-5 0-7.9 4.4-7.9 10.2 0 5.3 2.6 9.8 7.8 9.8 3.2 0 6.2-2.1 7.1-5.7.2-.7.2-1.3.2-2.1v-4.6zM42.8 64c.1 1.6-1.1 2.9-3.1 2.9-1.7 0-2.9-1.3-2.9-2.9 0-1.7 1.3-3 3-3 1.9 0 3 1.3 3 3zm-5.4 33.8V71.4h4.8v26.4h-4.8zM47.5 78.6c0-2.7-.1-5-.2-7.1h4.3l.3 4.4h.1c1.3-2.5 4.4-5 8.8-5 3.7 0 9.4 2.2 9.4 11.2v15.8h-4.8V82.6c0-4.3-1.6-7.8-6.1-7.8-3.2 0-5.6 2.2-6.5 4.9-.2.6-.3 1.4-.3 2.2v15.9h-4.8V78.6zM84 61.6c2.9-.4 6.3-.8 10.1-.8 6.8 0 11.7 1.6 14.9 4.6 3.3 3 5.2 7.3 5.2 13.2 0 6-1.9 10.9-5.3 14.3-3.4 3.4-9.1 5.3-16.3 5.3-3.4 0-6.2-.2-8.6-.4V61.6zm4.8 32.5c1.2.2 3 .3 4.8.3 10.2 0 15.7-5.7 15.7-15.6.1-8.7-4.9-14.2-14.9-14.2-2.5 0-4.3.2-5.6.5v29zM132.1 97.8l-.4-3.3h-.2a9.79 9.79 0 01-8.1 3.9c-5.4 0-8.1-3.8-8.1-7.6 0-6.4 5.7-9.9 15.9-9.8v-.5c0-2.2-.6-6.1-6-6.1-2.5 0-5 .8-6.9 2l-1.1-3.2c2.2-1.4 5.4-2.3 8.7-2.3 8.1 0 10.1 5.5 10.1 10.8v9.9c0 2.3.1 4.5.4 6.3h-4.3zm-.7-13.4c-5.3-.1-11.2.8-11.2 5.9 0 3.1 2.1 4.6 4.5 4.6 3.4 0 5.6-2.2 6.4-4.4.2-.5.3-1 .3-1.5v-4.6zM146.6 63.9v7.6h6.9v3.7h-6.9v14.2c0 3.3.9 5.1 3.6 5.1 1.3 0 2.2-.2 2.8-.3l.2 3.6c-.9.4-2.4.7-4.3.7-2.2 0-4-.7-5.2-2-1.4-1.4-1.9-3.8-1.9-6.9V75.1h-4.1v-3.7h4.1v-6.3l4.8-1.2zM171.4 97.8l-.4-3.3h-.2a9.79 9.79 0 01-8.1 3.9c-5.4 0-8.1-3.8-8.1-7.6 0-6.4 5.7-9.9 15.9-9.8v-.5c0-2.2-.6-6.1-6-6.1-2.5 0-5 .8-6.9 2l-1.1-3.2c2.2-1.4 5.4-2.3 8.7-2.3 8.1 0 10.1 5.5 10.1 10.8v9.9c0 2.3.1 4.5.4 6.3h-4.3zm-.7-13.4c-5.3-.1-11.2.8-11.2 5.9 0 3.1 2.1 4.6 4.5 4.6 3.4 0 5.6-2.2 6.4-4.4.2-.5.3-1 .3-1.5v-4.6z"/></g></g></a></g><a href="https://ourworldindata.org/grapher/under-5-population?country=NGA" target="_blank"><text font-size="25.2" x="15" y="35.2" fill="#555"><tspan x="15" y="35.16">Number of children under 5 years old, Nigeria</tspan></text></a><text font-size="14.4" x="15" y="53.7" fill="#666"><tspan x="15" y="53.72">The total population under 5 years old, given as historic estimates and projections to 2100 based on the UN&apos;s median</tspan><tspan x="15" y="69.56">fertility scenario.</tspan></text></g><g class="LineChart"><defs><clipPath id="a"><path d="M78.53 0h830v928.8h-830z"/></clipPath></defs><g class="AxisBoxView"><g class="HorizontalAxis" fill="#666" text-anchor="middle" font-size="16.2"><text x="88.5" y="556.5">1950</text><text x="136" y="556.5">1960</text><text x="230.8" y="556.5">1980</text><text x="325.7" y="556.5">2000</text><text x="420.5" y="556.5">2020</text><text x="515.4" y="556.5">2040</text><text x="610.3" y="556.5">2060</text><text x="705.1" y="556.5">2080</text><text x="800" y="556.5">2100</text></g><g class="VerticalAxis" fill="#666" dominant-baseline="middle" text-anchor="end" font-size="16.2"><text x="83.53" y="535.3">0</text><text x="83.53" y="463.2">10 million</text><text x="83.53" y="391">20 million</text><text x="83.53" y="318.9">30 million</text><text x="83.53" y="246.8">40 million</text><text x="83.53" y="174.6">50 million</text><text x="83.53" y="102.5">60 million</text></g><g class="AxisGridLines"><path stroke="#ccc" d="M88.53 535.3H800"/><path stroke="#ddd" stroke-dasharray="3,2" d="M88.53 463.2H800M88.53 391H800M88.53 318.9H800M88.53 246.8H800M88.53 174.6H800M88.53 102.5H800"/></g></g><g clip-path="url(#a)"><g class="Lines"><g class="key-Nigeria_0"><path stroke="#3360a9" stroke-linecap="round" d="M89 490l4-1h5l5-1h5l4-1 5-2 5-1 5-1 4-1 5-1 5-2 4-2 5-1 5-1 5-1 4-2 5-2 5-1 5-1 4-2 5-2 5-3 5-2 4-2 5-3 5-4 5-3 4-3 5-2 5-3 5-3 4-3 5-3 5-2 5-2 4-3 5-2 5-3 5-2 4-2 5-3 5-2 5-2 4-3 5-3 5-3 5-4 4-3 5-4 5-4 4-5 5-4 5-5 5-4 4-5 5-6 5-5 5-4 4-5 5-4 5-6 5-5 4-5 5-4 5-5" fill="none" stroke-width="1.5"/><g fill="#3360a9"><circle cx="89" cy="490" r="2"/><circle cx="93" cy="489" r="2"/><circle cx="98" cy="489" r="2"/><circle cx="103" cy="488" r="2"/><circle cx="108" cy="488" r="2"/><circle cx="112" cy="487" r="2"/><circle cx="117" cy="485" r="2"/><circle cx="122" cy="484" r="2"/><circle cx="127" cy="483" r="2"/><circle cx="131" cy="482" r="2"/><circle cx="136" cy="481" r="2"/><circle cx="141" cy="479" r="2"/><circle cx="145" cy="477" r="2"/><circle cx="150" cy="476" r="2"/><circle cx="155" cy="475" r="2"/><circle cx="160" cy="474" r="2"/><circle cx="164" cy="472" r="2"/><circle cx="169" cy="470" r="2"/><circle cx="174" cy="469" r="2"/><circle cx="179" cy="468" r="2"/><circle cx="183" cy="466" r="2"/><circle cx="188" cy="464" r="2"/><circle cx="193" cy="461" r="2"/><circle cx="198" cy="459" r="2"/><circle cx="202" cy="457" r="2"/><circle cx="207" cy="454" r="2"/><circle cx="212" cy="450" r="2"/><circle cx="217" cy="447" r="2"/><circle cx="221" cy="444" r="2"/><circle cx="226" cy="442" r="2"/><circle cx="231" cy="439" r="2"/><circle cx="236" cy="436" r="2"/><circle cx="240" cy="433" r="2"/><circle cx="245" cy="430" r="2"/><circle cx="250" cy="428" r="2"/><circle cx="255" cy="426" r="2"/><circle cx="259" cy="423" r="2"/><circle cx="264" cy="421" r="2"/><circle cx="269" cy="418" r="2"/><circle cx="274" cy="416" r="2"/><circle cx="278" cy="414" r="2"/><circle cx="283" cy="411" r="2"/><circle cx="288" cy="409" r="2"/><circle cx="293" cy="407" r="2"/><circle cx="297" cy="404" r="2"/><circle cx="302" cy="401" r="2"/><circle cx="307" cy="398" r="2"/><circle cx="312" cy="394" r="2"/><circle cx="316" cy="391" r="2"/><circle cx="321" cy="387" r="2"/><circle cx="326" cy="383" r="2"/><circle cx="330" cy="378" r="2"/><circle cx="335" cy="374" r="2"/><circle cx="340" cy="369" r="2"/><circle cx="345" cy="365" r="2"/><circle cx="349" cy="360" r="2"/><circle cx="354" cy="354" r="2"/><circle cx="359" cy="349" r="2"/><circle cx="364" cy="345" r="2"/><circle cx="368" cy="340" r="2"/><circle cx="373" cy="336" r="2"/><circle cx="378" cy="330" r="2"/><circle cx="383" cy="325" r="2"/><circle cx="387" cy="320" r="2"/><circle cx="392" cy="316" r="2"/><circle cx="397" cy="311" r="2"/></g></g><g class="key-Nigeria_1"><path stroke="#ca2628" stroke-linecap="round" d="M397 311l5-5 4-4 5-4 5-3 5-4 4-4 5-4 5-4 5-5 4-4 5-5 5-5 5-4 4-5 5-4 5-6 5-4 4-5 5-5 5-4 4-5 5-5 5-4 5-4 4-5 5-4 5-4 5-4 4-4 5-4 5-4 5-3 4-3 5-4 5-3 5-3 4-4 5-3 5-3 5-3 4-3 5-3 5-2 5-2 4-3 5-2 5-3 5-3 4-2 5-2 5-3 5-3 4-2 5-2 5-2 4-2 5-2 5-1 5-1 4-2 5-1 5-1 5-1 4-1 5-1 5-1h5l4-1h5l5-1h5l4-1h15l4-1h10l5 1h4l5 1h10l4 1 5 1" fill="none" stroke-width="1.5" stroke-dasharray="1,4"/></g></g></g></g><g class="SourcesFooter" fill="#777"><g class="clickable" fill="#777"><text font-size="12.6" x="15" y="581.6"><tspan x="15" y="581.58">Source: UN Population Division (2017 Revision)</tspan></text></g><text font-size="12.6" x="775.4" y="581.6"><tspan x="775.4" y="581.58"><a class="cclogo" href="http://creativecommons.org/licenses/by-sa/4.0/deed.en_US" target="_blank" fill="#777">CC BY-SA</a></tspan></text></g></g></svg>

<svg xmlns="http://www.w3.org/2000/svg" version="1.1" style="font-family: 'Helvetica Neue', Helvetica, Arial, sans-serif; font-size: 18px; background-color: white; text-rendering: optimizeLegibility; -webkit-font-smoothing: antialiased;" width="850" height="600"><g class="ChartTab"><g class="HeaderView"><g opacity="0.8" transform="translate(778, 15) scale(0.27)"><a xmlns:xlink="http://www.w3.org/1999/xlink" xlink:href="https://ourworldindata.org" target="_blank"><g><rect x="0" y="0" fill="#1B2543" width="211.2" height="130.1"/><rect x="0" y="112.2" fill="#E63912" width="211.2" height="17.9"/><g><rect x="1.2" y="12.3" fill="none" width="210.2" height="99.2"/><path fill="#FFFFFF" d="M37.8,32.2c0,12.7-7.7,19.4-17.1,19.4c-9.7,0-16.6-7.5-16.6-18.7c0-11.7,7.3-19.3,17.1-19.3 C31.3,13.7,37.8,21.3,37.8,32.2z M9.2,32.8c0,7.9,4.3,14.9,11.8,14.9c7.5,0,11.8-6.9,11.8-15.3c0-7.3-3.8-14.9-11.8-14.9 C13.1,17.5,9.2,24.8,9.2,32.8z"/><path fill="#FFFFFF" d="M62.7,43.8c0,2.7,0.1,5.1,0.2,7.2h-4.3l-0.3-4.3h-0.1c-1.3,2.1-4,4.9-8.8,4.9c-4.2,0-9.1-2.3-9.1-11.6 V24.6h4.8v14.6c0,5,1.5,8.4,5.9,8.4c3.2,0,5.5-2.2,6.3-4.4c0.3-0.7,0.4-1.6,0.4-2.5V24.6h4.8V43.8z"/><path fill="#FFFFFF" d="M67.3,32.8c0-3.1-0.1-5.8-0.2-8.2h4.2l0.2,5.2h0.2c1.2-3.5,4.1-5.8,7.3-5.8c0.5,0,0.9,0.1,1.4,0.2v4.5 c-0.5-0.1-1-0.2-1.6-0.2c-3.4,0-5.8,2.6-6.5,6.2c-0.1,0.7-0.2,1.4-0.2,2.2V51h-4.8V32.8z"/><path fill="#FFFFFF" d="M95.4,51l-9.4-36.8h5l4.4,18.6c1.1,4.6,2.1,9.2,2.7,12.7h0.1c0.6-3.7,1.8-8,3-12.8l4.9-18.5h5l4.5,18.7 c1,4.4,2,8.7,2.6,12.6h0.1c0.8-4,1.8-8.1,3-12.7l4.9-18.5h4.9L120.6,51h-5L111,31.9c-1.1-4.7-1.9-8.3-2.4-12h-0.1 c-0.7,3.7-1.5,7.3-2.8,12L100.4,51H95.4z"/><path fill="#FFFFFF" d="M154.9,37.6c0,9.8-6.8,14-13.2,14c-7.2,0-12.7-5.2-12.7-13.6c0-8.8,5.8-14,13.1-14 C149.8,24,154.9,29.5,154.9,37.6z M133.9,37.9c0,5.8,3.3,10.1,8,10.1c4.6,0,8-4.3,8-10.3c0-4.5-2.2-10.1-7.9-10.1 C136.3,27.6,133.9,32.8,133.9,37.9z"/><path fill="#FFFFFF" d="M158.2,32.8c0-3.1-0.1-5.8-0.2-8.2h4.2l0.2,5.2h0.2c1.2-3.5,4.1-5.8,7.3-5.8c0.5,0,0.9,0.1,1.4,0.2v4.5 c-0.5-0.1-1-0.2-1.6-0.2c-3.4,0-5.8,2.6-6.5,6.2c-0.1,0.7-0.2,1.4-0.2,2.2V51h-4.8V32.8z"/><path fill="#FFFFFF" d="M173.5,12.3h4.8V51h-4.8V12.3z"/><path fill="#FFFFFF" d="M206.5,12.3v31.9c0,2.3,0.1,5,0.2,6.8h-4.3l-0.2-4.6H202c-1.5,2.9-4.7,5.2-9,5.2 c-6.4,0-11.3-5.4-11.3-13.4c-0.1-8.8,5.4-14.2,11.9-14.2c4,0,6.8,1.9,8,4h0.1V12.3H206.5z M201.7,35.4c0-0.6-0.1-1.4-0.2-2 c-0.7-3.1-3.3-5.6-6.9-5.6c-5,0-7.9,4.4-7.9,10.2c0,5.3,2.6,9.8,7.8,9.8c3.2,0,6.2-2.1,7.1-5.7c0.2-0.7,0.2-1.3,0.2-2.1V35.4z"/><path fill="#FFFFFF" d="M42.8,64c0.1,1.6-1.1,2.9-3.1,2.9c-1.7,0-2.9-1.3-2.9-2.9c0-1.7,1.3-3,3-3C41.7,61,42.8,62.3,42.8,64z M37.4,97.8V71.4h4.8v26.4H37.4z"/><path fill="#FFFFFF" d="M47.5,78.6c0-2.7-0.1-5-0.2-7.1h4.3l0.3,4.4h0.1c1.3-2.5,4.4-5,8.8-5c3.7,0,9.4,2.2,9.4,11.2v15.8h-4.8 V82.6c0-4.3-1.6-7.8-6.1-7.8c-3.2,0-5.6,2.2-6.5,4.9c-0.2,0.6-0.3,1.4-0.3,2.2v15.9h-4.8V78.6z"/><path fill="#FFFFFF" d="M84,61.6c2.9-0.4,6.3-0.8,10.1-0.8c6.8,0,11.7,1.6,14.9,4.6c3.3,3,5.2,7.3,5.2,13.2c0,6-1.9,10.9-5.3,14.3 c-3.4,3.4-9.1,5.3-16.3,5.3c-3.4,0-6.2-0.2-8.6-0.4V61.6z M88.8,94.1c1.2,0.2,3,0.3,4.8,0.3c10.2,0,15.7-5.7,15.7-15.6 c0.1-8.7-4.9-14.2-14.9-14.2c-2.5,0-4.3,0.2-5.6,0.5V94.1z"/><path fill="#FFFFFF" d="M132.1,97.8l-0.4-3.3h-0.2c-1.5,2.1-4.3,3.9-8.1,3.9c-5.4,0-8.1-3.8-8.1-7.6c0-6.4,5.7-9.9,15.9-9.8v-0.5 c0-2.2-0.6-6.1-6-6.1c-2.5,0-5,0.8-6.9,2l-1.1-3.2c2.2-1.4,5.4-2.3,8.7-2.3c8.1,0,10.1,5.5,10.1,10.8v9.9c0,2.3,0.1,4.5,0.4,6.3 H132.1z M131.4,84.4c-5.3-0.1-11.2,0.8-11.2,5.9c0,3.1,2.1,4.6,4.5,4.6c3.4,0,5.6-2.2,6.4-4.4c0.2-0.5,0.3-1,0.3-1.5V84.4z"/><path fill="#FFFFFF" d="M146.6,63.9v7.6h6.9v3.7h-6.9v14.2c0,3.3,0.9,5.1,3.6,5.1c1.3,0,2.2-0.2,2.8-0.3l0.2,3.6 c-0.9,0.4-2.4,0.7-4.3,0.7c-2.2,0-4-0.7-5.2-2c-1.4-1.4-1.9-3.8-1.9-6.9V75.1h-4.1v-3.7h4.1v-6.3L146.6,63.9z"/><path fill="#FFFFFF" d="M171.4,97.8l-0.4-3.3h-0.2c-1.5,2.1-4.3,3.9-8.1,3.9c-5.4,0-8.1-3.8-8.1-7.6c0-6.4,5.7-9.9,15.9-9.8v-0.5 c0-2.2-0.6-6.1-6-6.1c-2.5,0-5,0.8-6.9,2l-1.1-3.2c2.2-1.4,5.4-2.3,8.7-2.3c8.1,0,10.1,5.5,10.1,10.8v9.9c0,2.3,0.1,4.5,0.4,6.3 H171.4z M170.7,84.4c-5.3-0.1-11.2,0.8-11.2,5.9c0,3.1,2.1,4.6,4.5,4.6c3.4,0,5.6-2.2,6.4-4.4c0.2-0.5,0.3-1,0.3-1.5V84.4z"/></g></g></a></g><a href="https://ourworldindata.org/grapher/under-5-population?country=NGA" target="_blank"><text font-size="25.20" x="15.0" y="35.2" fill="#555"><tspan x="15" y="35.160000000000004">Number of children under 5 years old, Nigeria</tspan></text></a><text font-size="14.40" x="15.0" y="53.7" fill="#666"><tspan x="15" y="53.72">The total population under 5 years old, given as historic estimates and projections to 2100 based on the UN's median</tspan><tspan x="15" y="69.56">fertility scenario.</tspan></text></g><g class="LineChart"><defs><clipPath id="boundsClip-2"><rect x="78.526" y="0" width="830" height="928.8"></rect></clipPath></defs><g class="AxisBoxView"><g class="HorizontalAxis"><text x="88.5" y="556.5" fill="#666" text-anchor="middle" font-size="16.2">1950</text><text x="136" y="556.5" fill="#666" text-anchor="middle" font-size="16.2">1960</text><text x="230.8" y="556.5" fill="#666" text-anchor="middle" font-size="16.2">1980</text><text x="325.7" y="556.5" fill="#666" text-anchor="middle" font-size="16.2">2000</text><text x="420.5" y="556.5" fill="#666" text-anchor="middle" font-size="16.2">2020</text><text x="515.4" y="556.5" fill="#666" text-anchor="middle" font-size="16.2">2040</text><text x="610.3" y="556.5" fill="#666" text-anchor="middle" font-size="16.2">2060</text><text x="705.1" y="556.5" fill="#666" text-anchor="middle" font-size="16.2">2080</text><text x="800" y="556.5" fill="#666" text-anchor="middle" font-size="16.2">2100</text></g><g class="VerticalAxis"><text x="83.53" y="535.3" fill="#666" dominant-baseline="middle" text-anchor="end" font-size="16.2">0</text><text x="83.53" y="463.2" fill="#666" dominant-baseline="middle" text-anchor="end" font-size="16.2">10 million</text><text x="83.53" y="391" fill="#666" dominant-baseline="middle" text-anchor="end" font-size="16.2">20 million</text><text x="83.53" y="318.9" fill="#666" dominant-baseline="middle" text-anchor="end" font-size="16.2">30 million</text><text x="83.53" y="246.8" fill="#666" dominant-baseline="middle" text-anchor="end" font-size="16.2">40 million</text><text x="83.53" y="174.6" fill="#666" dominant-baseline="middle" text-anchor="end" font-size="16.2">50 million</text><text x="83.53" y="102.5" fill="#666" dominant-baseline="middle" text-anchor="end" font-size="16.2">60 million</text></g><g class="AxisGridLines"><line x1="88.53" y1="535.3" x2="800.00" y2="535.3" stroke="#ccc"></line><line x1="88.53" y1="463.2" x2="800.00" y2="463.2" stroke="#ddd" stroke-dasharray="3,2"></line><line x1="88.53" y1="391" x2="800.00" y2="391" stroke="#ddd" stroke-dasharray="3,2"></line><line x1="88.53" y1="318.9" x2="800.00" y2="318.9" stroke="#ddd" stroke-dasharray="3,2"></line><line x1="88.53" y1="246.8" x2="800.00" y2="246.8" stroke="#ddd" stroke-dasharray="3,2"></line><line x1="88.53" y1="174.6" x2="800.00" y2="174.6" stroke="#ddd" stroke-dasharray="3,2"></line><line x1="88.53" y1="102.5" x2="800.00" y2="102.5" stroke="#ddd" stroke-dasharray="3,2"></line></g></g><g clip-path="url(#boundsClip-2)"><g class="HeightedLegend clickable"><g class="legendMark"><rect x="800" y="96.25" width="35" height="-1.1" fill="#fff" opacity="0"></rect></g></g><g class="Lines"><rect x="89" y="92" width="711" height="443" fill="rgba(255,255,255,0)" opacity="0"></rect><g class="key-Nigeria_0"><path stroke="#3360a9" stroke-linecap="round" d="M89 490L93 489L98 489L103 488L108 488L112 487L117 485L122 484L127 483L131 482L136 481L141 479L145 477L150 476L155 475L160 474L164 472L169 470L174 469L179 468L183 466L188 464L193 461L198 459L202 457L207 454L212 450L217 447L221 444L226 442L231 439L236 436L240 433L245 430L250 428L255 426L259 423L264 421L269 418L274 416L278 414L283 411L288 409L293 407L297 404L302 401L307 398L312 394L316 391L321 387L326 383L330 378L335 374L340 369L345 365L349 360L354 354L359 349L364 345L368 340L373 336L378 330L383 325L387 320L392 316L397 311" fill="none" stroke-width="1.5"></path><g fill="#3360a9"><circle cx="89" cy="490" r="2"></circle><circle cx="93" cy="489" r="2"></circle><circle cx="98" cy="489" r="2"></circle><circle cx="103" cy="488" r="2"></circle><circle cx="108" cy="488" r="2"></circle><circle cx="112" cy="487" r="2"></circle><circle cx="117" cy="485" r="2"></circle><circle cx="122" cy="484" r="2"></circle><circle cx="127" cy="483" r="2"></circle><circle cx="131" cy="482" r="2"></circle><circle cx="136" cy="481" r="2"></circle><circle cx="141" cy="479" r="2"></circle><circle cx="145" cy="477" r="2"></circle><circle cx="150" cy="476" r="2"></circle><circle cx="155" cy="475" r="2"></circle><circle cx="160" cy="474" r="2"></circle><circle cx="164" cy="472" r="2"></circle><circle cx="169" cy="470" r="2"></circle><circle cx="174" cy="469" r="2"></circle><circle cx="179" cy="468" r="2"></circle><circle cx="183" cy="466" r="2"></circle><circle cx="188" cy="464" r="2"></circle><circle cx="193" cy="461" r="2"></circle><circle cx="198" cy="459" r="2"></circle><circle cx="202" cy="457" r="2"></circle><circle cx="207" cy="454" r="2"></circle><circle cx="212" cy="450" r="2"></circle><circle cx="217" cy="447" r="2"></circle><circle cx="221" cy="444" r="2"></circle><circle cx="226" cy="442" r="2"></circle><circle cx="231" cy="439" r="2"></circle><circle cx="236" cy="436" r="2"></circle><circle cx="240" cy="433" r="2"></circle><circle cx="245" cy="430" r="2"></circle><circle cx="250" cy="428" r="2"></circle><circle cx="255" cy="426" r="2"></circle><circle cx="259" cy="423" r="2"></circle><circle cx="264" cy="421" r="2"></circle><circle cx="269" cy="418" r="2"></circle><circle cx="274" cy="416" r="2"></circle><circle cx="278" cy="414" r="2"></circle><circle cx="283" cy="411" r="2"></circle><circle cx="288" cy="409" r="2"></circle><circle cx="293" cy="407" r="2"></circle><circle cx="297" cy="404" r="2"></circle><circle cx="302" cy="401" r="2"></circle><circle cx="307" cy="398" r="2"></circle><circle cx="312" cy="394" r="2"></circle><circle cx="316" cy="391" r="2"></circle><circle cx="321" cy="387" r="2"></circle><circle cx="326" cy="383" r="2"></circle><circle cx="330" cy="378" r="2"></circle><circle cx="335" cy="374" r="2"></circle><circle cx="340" cy="369" r="2"></circle><circle cx="345" cy="365" r="2"></circle><circle cx="349" cy="360" r="2"></circle><circle cx="354" cy="354" r="2"></circle><circle cx="359" cy="349" r="2"></circle><circle cx="364" cy="345" r="2"></circle><circle cx="368" cy="340" r="2"></circle><circle cx="373" cy="336" r="2"></circle><circle cx="378" cy="330" r="2"></circle><circle cx="383" cy="325" r="2"></circle><circle cx="387" cy="320" r="2"></circle><circle cx="392" cy="316" r="2"></circle><circle cx="397" cy="311" r="2"></circle></g></g><g class="key-Nigeria_1"><path stroke="#ca2628" stroke-linecap="round" d="M397 311L402 306L406 302L411 298L416 295L421 291L425 287L430 283L435 279L440 274L444 270L449 265L454 260L459 256L463 251L468 247L473 241L478 237L482 232L487 227L492 223L496 218L501 213L506 209L511 205L515 200L520 196L525 192L530 188L534 184L539 180L544 176L549 173L553 170L558 166L563 163L568 160L572 156L577 153L582 150L587 147L591 144L596 141L601 139L606 137L610 134L615 132L620 129L625 126L629 124L634 122L639 119L644 116L648 114L653 112L658 110L662 108L667 106L672 105L677 104L681 102L686 101L691 100L696 99L700 98L705 97L710 96L715 96L719 95L724 95L729 94L734 94L738 93L743 93L748 93L753 93L757 92L762 92L767 92L772 93L776 93L781 94L786 94L791 94L795 95L800 96" fill="none" stroke-width="1.5" stroke-dasharray="1,4"></path></g></g></g></g><g style="fill: #777;" class="SourcesFooter"><g style="fill: #777;" class="clickable"><text font-size="12.60" x="15.0" y="581.6"><tspan x="15" y="581.58">Source: UN Population Division (2017 Revision)</tspan></text></g><text font-size="12.60" x="775.4" y="581.6"><tspan x="775.402" y="581.58"><a style="fill: #777;" class="cclogo" href="http://creativecommons.org/licenses/by-sa/4.0/deed.en_US" target="_blank">CC BY-SA</a></tspan></text></g></g></svg>
